T: Joanie's
M: 6/8
L: 1/8
K: Dmaj
DEF EFG | FAd f2 f | gec ABc | dAG FGE |D2 F EE/F/G | FAd f^ef | gec ABc | d3 d2 :|f3 g3 | afd def | gec ABc | dAG FED |f^ef ge/f/g | afd def | gec AA/B/c | d3- d2 :|DEF EFG | FAd f2 f | gec ABc | dAG FGE |D2 F E2 G | FAd f^ef | gec ABc | d3 d2 :|f3 g3 | afd def | gec ABc |[1 dAG FED | f^ef ge/f/g | afd d2 f | gec AA/B/c | d3 d2 :|[2 dAG FGE | DEF E2 G | FAd f2 a | gec ABc | d3- d2 |]
